src/lib/packages/icons/src/assets/filled/coins.svg

<svg width="24" height="24" viewBox="0 0 24 24" fill="none" xmlns="http://www.w3.org/2000/svg">
<path d="M7.5 18.01C7.5 18.74 7.72001 19.4 8.13 19.97C5.45 19.8 3 18.82 3 17.01V16.13C4.05 16.95 5.6 17.5 7.5 17.68V18.01ZM7.53998 13.94C7.52998 13.95 7.53003 13.96 7.53003 13.97C7.51003 14.07 7.5 14.17 7.5 14.27V16.18C5.08 15.9 3 14.94 3 13.27V12.39C4.05 13.22 5.61003 13.77 7.53003 13.94H7.53998ZM11.44 10.28C9.92 10.75 8.73001 11.52 8.07001 12.48C5.41001 12.31 3 11.33 3 9.53003V8.84998C4.31 9.87998 6.41 10.48 9 10.48C9.87 10.48 10.69 10.41 11.44 10.28ZM15 8.84998V9.53003C15 9.62003 14.99 9.70003 14.98 9.78003C14.19 9.78003 13.44 9.84997 12.74 9.96997C13.64 9.69997 14.4 9.31998 15 8.84998ZM9 3C6 3 3 3.99999 3 5.98999C3 7.99999 6 8.97998 9 8.97998C12 8.97998 15 7.99999 15 5.98999C15 3.99999 12 3 9 3ZM15 18.76C12.49 18.76 10.35 18.1 9 17.03V18.01C9 20 12 21 15 21C18 21 21 20 21 18.01V17.03C19.65 18.1 17.51 18.76 15 18.76ZM15 11.28C11.69 11.28 9 12.62 9 14.27C9 15.92 11.69 17.26 15 17.26C18.31 17.26 21 15.92 21 14.27C21 12.62 18.31 11.28 15 11.28Z" fill="currentColor"/>
</svg>

<svg xmlns="http://www.w3.org/2000/svg" width="24" height="24" fill="none"><path fill="currentColor" d="M7.5 18.01c0 .73.22 1.39.63 1.96C5.45 19.8 3 18.82 3 17.01v-.88c1.05.82 2.6 1.37 4.5 1.55v.33Zm.04-4.07c-.01.01-.01.02-.01.03-.02.1-.03.2-.03.3v1.91C5.08 15.9 3 14.94 3 13.27v-.88c1.05.83 2.61 1.38 4.53 1.55h.01Zm3.9-3.66c-1.52.47-2.71 1.24-3.37 2.2C5.41 12.31 3 11.33 3 9.53v-.68c1.31 1.03 3.41 1.63 6 1.63.87 0 1.69-.07 2.44-.2ZM15 8.85v.68c0 .09-.01.17-.02.25-.79 0-1.54.07-2.24.19.9-.27 1.66-.65 2.26-1.12ZM9 3C6 3 3 4 3 5.99 3 8 6 8.98 9 8.98s6-.98 6-2.99C15 4 12 3 9 3Zm6 15.76c-2.51 0-4.65-.66-6-1.73v.98C9 20 12 21 15 21s6-1 6-2.99v-.98c-1.35 1.07-3.49 1.73-6 1.73Zm0-7.48c-3.31 0-6 1.34-6 2.99 0 1.65 2.69 2.99 6 2.99s6-1.34 6-2.99c0-1.65-2.69-2.99-6-2.99Z"/></svg>
